!!!!SEGMENT: pl-kk--kk-i-382--042-003_anonim--msza-na-4-meskie-glosy-zebrana-benedictus.krn
!!!cenid: 18xx:1535
!!!COM: Anonim
!!!COM-rismID: pe30004985
!!!CDT:
!!!CNT:
!!!OPR: Msza na 4 męskie głosy zebrana
!!!OTL: Benedictus
!!!OMV: 003
!!!PDT:
!!!AGN: Sacred; Mass
!!!SMS-siglum: PL-Kk
!!!SMS-shelfmark: Kk.I.382
!!!SMS-shelfwork: 028-003 M
!!!SMS-variant:
!!!SMS-altvar:
!!!NIFC-rismSourceID: 1001140226
!!!NIFC-islandoraID: pl-kk:6162
!!!URL-pdf-islandora: https://repozytorium.nifc.pl/islandora/object/pl-kk%3A6162/datastream/PDF/view
!!!URL-scan: https://polish.musicsources.pl/pl/lokalizacje/galeria/rekopisy/5994 @EN{Scan on Polish Music Sources Website} @PL{Skany w portalu Dziedzictwo Muzyki Polskiej w otwartym dostępie}
!!!ONB-nifc: UWAGA: obsada: S/T 1, T 2, A/B 1, B 2. Skan 0036, 0106-0107, 0179-0180, 0255-0256. Osobne części Mszy: Kyrie, Sanctus, Benedictus, Agnus Dei
!!!AIN: 1 alto 1 bass 1 soprn 1 tenor
!!!key:
**kern	**text	**kern	**text	**kern	**text	**kern	**text
*part4	*part4	*part3	*part3	*part2	*part2	*part1	*part1
*staff4	*staff4	*staff3	*staff3	*staff2	*staff2	*staff1	*staff1
*Ibass	*	*Itenor	*	*Ialto	*	*Isoprn	*
*I"Basso	*	*I"Tenore	*	*I"Alto	*	*I"Canto	*
*clefF4	*	*clefF4	*	*clefG2	*	*clefG2	*
*k[f#c#]	*	*k[f#c#]	*	*k[f#c#]	*	*k[f#c#]	*
*D:	*	*D:	*	*D:	*	*D:	*
*M4/4	*	*M4/4	*	*M4/4	*	*M4/4	*
*met(c)	*	*met(c)	*	*met(c)	*	*met(c)	*
!LO:TX:t=P:problem=all\right&colon; global	!	!LO:TX:t=P:problem=all\right&colon; global	!	!LO:TX:t=P:problem=all\right&colon; global	!	!LO:TX:t=P:problem=all\right&colon; global	!
!	!	!	!	!	!	!LO:TX:a:t=P:problem=w źródle zapis innym atramentem ["niebiosa" - Bethoven]	!
!	!	!	!	!LO:SIC:o=Benedictus:v:t=w źródle 'Benedictus' znajduje się przed kluczem i oznaczeniem metrum	!	!LO:SIC:o=Benedictus.:v:t=w źródle 'Benedictus.' znajduje się przed kluczem i oznaczeniem metrum	!
!LO:SIC:o=Benedictus.:v:t=w źródle 'Benedictus.' znajduje się nad pierwszą pięciolinią [zajmując całą pięciolinię powyżej]	!	!LO:SIC:o=Benedictus.:v:t=w źródle 'Benedictus.' znajduje się przed kluczem i oznaczeniem metrum	!	!	!	!	!
8A\	Be-	8A\	Be-	8a/	Be-	8a/	Be-
8A\	-ne-	8A\	-ne-	8a/	-ne-	8a/	-ne-
=1	=1	=1	=1	=1	=1	=1	=1
*2\right	*	*2\right	*	*2\right	*	*2\right	*
2d\	-dic-	2d\	-dic-	2dd\	-dic-	2dd\	-dic-
4A\	-tus	4A\	-tus	4a/	-tus	4a/	-tus
4A\	qui	4A\	qui	4a/	qui	4a/	qui
=2	=2	=2	=2	=2	=2	=2	=2
!	!	!	!	!LO:TX:a:Bi:t=Bethoven.	!	!	!
2F#\	ve-	2F#\	ve-	2f#/	ve-	2f#/	ve-
4D\	-nit	4D\	-nit	4d/	-nit	4d/	-nit
!	!	!LO:TX:a:i:t=Bethoven.	!	!	!	!	!
4D\	in	4A\	in	4dd\	in	4ff#\	in
!	!	!LO:LB:g=original	!	!LO:LB:g=original	!	!LO:LB:g=original	!
=3	=3	=3	=3	=3	=3	=3	=3
2D\	no-	2A\	no-	2dd\	no-	2ff#\	no-
4D\	-mi-	4G\	-mi-	4a/	-mi-	4ee\	-mi-
!LO:TX:a:i:t=Bethoven.	!	!	!	!	!	!	!
4D\	-ne	4F#\	-ne	4a/	-ne	4dd\	-ne
!LO:LB:g=original	!	!	!	!	!	!	!
=4	=4	=4	=4	=4	=4	=4	=4
4AA/	Do-	4F#\	Do-	4a/	Do-	4dd\	Do-
4AA/	-mi-	4F#\	-mi-	4a/	-mi-	4dd\	-mi-
4AA;>/	-ni	4E;>\	-ni	4a;>/	-ni,	4cc#;>\	-ni
8AA/	Be-	8AA/	Be-	8a/	Be-	8a/	Be-
8AA/	-ne-	8AA/	-ne-	8a/	-ne-	8a/	-ne-
=5	=5	=5	=5	=5	=5	=5	=5
!	!	!	!	!LO:TX:a:t=P:problem=w źródle nad dźwiękiem 2g dopisany ołówkiem dźwięk 2gg	!	!	!
2G\	-dic-	2G\	-dic-	2g/	-dic-	2gg\	-dic-
4E\	-tus	4E\	-tus	4ee\	-tus	4ee\	-tus
4E\	qui	4E\	qui	4ee\	qui	4ee\	qui
=6	=6	=6	=6	=6	=6	=6	=6
2C#/	ve-	2C#/	ve-	2cc#\	ve-	2cc#\	ve-
4AA/	-nit	4A\	-nit	4a/	-nit	4a/	-nit
4AA/	in	4A\	in	4a/	in	4a/	in
!	!	!	!	!LO:PB:g=original	!	!LO:LB:g=original	!
=7	=7	=7	=7	=7	=7	=7	=7
4F#\	no-	4A\	no-	4dd\	no-	4dd\	no-
8F#\	-mi-	8A\	-mi-	8dd\	-mi-	8dd\	-mi-
8F#\	-ne	8A\	-ne	8dd\	-ne	8dd\	-ne
4E\	Do-	4A\	Do-	4cc#\	Do-	4ee\	Do-
4E\	-mi-	4A\	-mi-	4cc#\	-mi-	4ee\	-mi-
!LO:LB:g=original	!	!LO:LB:g=original	!	!	!	!	!
=8	=8	=8	=8	=8	=8	=8	=8
2.D\	-ni	2.A\	-ni	2dd\	-ni	2ff#\	-ni
.	.	.	.	4r	.	4r	.
4D\	Ho-	4A\	Ho-	4dd\	Ho-	4ff#\	Ho-
=9	=9	=9	=9	=9	=9	=9	=9
4BB/	-san-	4B\	-san-	4dd#X\	-san-	4ff#\	-san-
4BB/	-na	4B\	-na	4dd#\	-na	4ff#\	-na
4BB/	in	4B\	in	4dd#\	in	4ff#\	in
4BB/	ex-	4B\	ex-	4dd#\	ex-	4ff#\	ex-
=10	=10	=10	=10	=10	=10	=10	=10
2E\	-cel-	2B\	-cel-	2ee\	-cel-	2gg\	-cel-
4G\	-sis	4B\	-sis	4ee;>\	-sis	4ee;>\	-sis
4G\	ho-	4B\	Ho-	4ee\	Ho-	4ee\	Ho-
!	!	!	!	!LO:LB:g=original	!	!LO:LB:g=original	!
=11	=11	=11	=11	=11	=11	=11	=11
1AA	-san-	(<2A\	-san-	(>2dd\	-san-	(<2.aa\	-san-
.	.	2G\)	.	2a/)	.	.	.
.	.	.	.	.	.	4cc#\)	.
=12	=12	=12	=12	=12	=12	=12	=12
2D\	-na	2F#\	-na	2a;>/	-na	2dd\	-na
4r	.	4r	.	4r	.	4r	.
8D\	in	8F#\	in	8a/	in	8dd\	in
8D\	ex-	8F#\	ex-	8a/	ex-	8dd\	ex-
!LO:LB:g=original	!	!	!	!	!	!	!
=13	=13	=13	=13	=13	=13	=13	=13
1D	-cel-	(>2G\	-cel-	(>2b\	-cel-	1dd	-cel-
.	.	4B\	.	4g/	.	.	.
.	.	4G\)	.	4b\)	.	.	.
=14	=14	=14	=14	=14	=14	=14	=14
2.D\	-sis.	1F#	-sis	1a	-sis.	1dd	-sis.
4r	.	.	.	.	.	.	.
==	==	==	==	==	==	==	==
*-	*-	*-	*-	*-	*-	*-	*-
!!!system-decoration: [(s1,s2,s3,s4)]
!!!RDF**kern: > = above
!!!RDF**kern: < = below
!!!EED: Wojciech Jakubiak-Danek
!!!EEV: 2021-02-08
!!!ENC: Tomasz Grochalski
!!!END: 2021-01-29
!!!YEC: Copyright 2022 Narodowy Instytut Fryderyka Chopina (https://polishscores.org)
!!!YEM: Licence CC BY 4.0 (https://creativecommons.org/licenses/by/4.0)
